X:9
T:MAGIC SLIPPER -- REEL.
T:Maude Millar
R:reel
N:version of Maude Millar
B:Coles pg 30.1
Z:John B. Walsh, 5/8/2002 <walsh:mat::h.ubc.ca>
M:2/4
L:1/16
K:G
u(ge) S|dBAB GFEF|.G2BG dGBe|dBAB GFED|Bee^d efge|
dBAB GFEF|.G2BG dGBe|dBAB GFED|Bee^d efge:|
|: dega bgab|gdBd gdBg|dega bgab|gafg efge|
dega bagf|gfef ">"g3a|bagf gfed|egfa efge S:|
